%
(1001)
(T1 D=2 CR=0 - ZMIN=-4.9 - flat end mill)
N10 G90 G94
N20 G17
N30 G21
N40 G0 Z1
N50 G0 X0 Y0

(2D ??2 2)
N60 T1 M6
N70 S7600 M3
N80 G54
N90 M8
N100 G0 X31.087 Y-15.95
N110 G43 Z1
N120 G1 Z-1 F333.3
N130 X21.283 F400
N140 G2 X20.417 Y-15.45 I0 J1
N150 G1 X15.221 Y-6.45
N160 G2 X16.087 Y-4.95 I0.866 J0.5
N170 G1 X20.672
N180 G2 X21.045 Y-5.022 I0 J-1
N190 X21.377 Y-5.24 I-0.373 J-0.928 F100
N200 X21.087 Y-4.536 I0.71 J0.705 F400
N210 G1 Y-1.25
N220 G2 X21.379 Y-0.543 I1 J0
N230 G1 X21.629 Y-0.293
N240 G2 X22.337 Y0 I0.707 J-0.707
N250 G1 X27.837
N260 G2 X28.544 Y-0.293 I0 J-1
N270 G1 X28.794 Y-0.543
N280 G2 X29.087 Y-1.25 I-0.707 J-0.707
N290 G1 Y-7.536
N300 G2 X29.015 Y-7.908 I-1 J0
N310 X28.796 Y-8.24 I-0.928 J0.373 F100
N320 X29.501 Y-7.95 I0.705 J-0.71 F400
N330 G1 X31.087
N340 G2 X32.087 Y-8.95 I0 J-1
N350 G1 Y-14.95
N360 G2 X31.087 Y-15.95 I-1 J0
N370 G0 Z1
N380 X1 Y0
N390 G1 Z-1 F333.3
N400 X10.804 F400
N410 G2 X11.67 Y-0.5 I0 J-1
N420 G1 X16.866 Y-9.5
N430 G2 X16 Y-11 I-0.866 J-0.5
N440 G1 X11.414
N450 G2 X11.042 Y-10.928 I0 J1
N460 X10.71 Y-10.71 I0.372 J0.928 F100
N470 X11 Y-11.414 I-0.71 J-0.704 F400
N480 G1 Y-14.7
N490 G2 X10.707 Y-15.407 I-1 J0
N500 G1 X10.457 Y-15.657
N510 G2 X9.75 Y-15.95 I-0.707 J0.707
N520 G1 X4.25
N530 G2 X3.543 Y-15.657 I0 J1
N540 G1 X3.293 Y-15.407
N550 G2 X3 Y-14.7 I0.707 J0.707
N560 G1 Y-8.414
N570 G2 X3.073 Y-8.04 I1 J0
N580 X3.291 Y-7.709 I0.927 J-0.374 F100
N590 X2.586 Y-8 I-0.706 J0.709 F400
N600 G1 X1
N610 G2 X0 Y-7 I0 J1
N620 G1 Y-1
N630 G2 X1 Y0 I1 J0
N640 G1 Z-2 F333.3
N650 X10.804 F400
N660 G2 X11.67 Y-0.5 I0 J-1
N670 G1 X16.866 Y-9.5
N680 G2 X16 Y-11 I-0.866 J-0.5
N690 G1 X11.414
N700 G2 X11.042 Y-10.928 I0 J1
N710 X10.71 Y-10.71 I0.372 J0.928 F100
N720 X11 Y-11.414 I-0.71 J-0.704 F400
N730 G1 Y-14.7
N740 G2 X10.707 Y-15.407 I-1 J0
N750 G1 X10.457 Y-15.657
N760 G2 X9.75 Y-15.95 I-0.707 J0.707
N770 G1 X4.25
N780 G2 X3.543 Y-15.657 I0 J1
N790 G1 X3.293 Y-15.407
N800 G2 X3 Y-14.7 I0.707 J0.707
N810 G1 Y-8.414
N820 G2 X3.073 Y-8.04 I1 J0
N830 X3.291 Y-7.709 I0.927 J-0.374 F100
N840 X2.586 Y-8 I-0.706 J0.709 F400
N850 G1 X1
N860 G2 X0 Y-7 I0 J1
N870 G1 Y-1
N880 G2 X1 Y0 I1 J0
N890 G0 Z1
N900 X31.087 Y-15.95
N910 G1 Z-2 F333.3
N920 X21.283 F400
N930 G2 X20.417 Y-15.45 I0 J1
N940 G1 X15.221 Y-6.45
N950 G2 X16.087 Y-4.95 I0.866 J0.5
N960 G1 X20.672
N970 G2 X21.045 Y-5.022 I0 J-1
N980 X21.377 Y-5.24 I-0.373 J-0.928 F100
N990 X21.087 Y-4.536 I0.71 J0.705 F400
N1000 G1 Y-1.25
N1010 G2 X21.379 Y-0.543 I1 J0
N1020 G1 X21.629 Y-0.293
N1030 G2 X22.337 Y0 I0.707 J-0.707
N1040 G1 X27.837
N1050 G2 X28.544 Y-0.293 I0 J-1
N1060 G1 X28.794 Y-0.543
N1070 G2 X29.087 Y-1.25 I-0.707 J-0.707
N1080 G1 Y-7.536
N1090 G2 X29.015 Y-7.908 I-1 J0
N1100 X28.796 Y-8.24 I-0.928 J0.373 F100
N1110 X29.501 Y-7.95 I0.705 J-0.71 F400
N1120 G1 X31.087
N1130 G2 X32.087 Y-8.95 I0 J-1
N1140 G1 Y-14.95
N1150 G2 X31.087 Y-15.95 I-1 J0
N1160 G1 Z-3 F333.3
N1170 X21.283 F400
N1180 G2 X20.417 Y-15.45 I0 J1
N1190 G1 X15.221 Y-6.45
N1200 G2 X16.087 Y-4.95 I0.866 J0.5
N1210 G1 X20.672
N1220 G2 X21.045 Y-5.022 I0 J-1
N1230 X21.377 Y-5.24 I-0.373 J-0.928 F100
N1240 X21.087 Y-4.536 I0.71 J0.705 F400
N1250 G1 Y-1.25
N1260 G2 X21.379 Y-0.543 I1 J0
N1270 G1 X21.629 Y-0.293
N1280 G2 X22.337 Y0 I0.707 J-0.707
N1290 G1 X27.837
N1300 G2 X28.544 Y-0.293 I0 J-1
N1310 G1 X28.794 Y-0.543
N1320 G2 X29.087 Y-1.25 I-0.707 J-0.707
N1330 G1 Y-7.536
N1340 G2 X29.015 Y-7.908 I-1 J0
N1350 X28.796 Y-8.24 I-0.928 J0.373 F100
N1360 X29.501 Y-7.95 I0.705 J-0.71 F400
N1370 G1 X31.087
N1380 G2 X32.087 Y-8.95 I0 J-1
N1390 G1 Y-14.95
N1400 G2 X31.087 Y-15.95 I-1 J0
N1410 G0 Z1
N1420 X1 Y0
N1430 G1 Z-3 F333.3
N1440 X10.804 F400
N1450 G2 X11.67 Y-0.5 I0 J-1
N1460 G1 X16.866 Y-9.5
N1470 G2 X16 Y-11 I-0.866 J-0.5
N1480 G1 X11.414
N1490 G2 X11.042 Y-10.928 I0 J1
N1500 X10.71 Y-10.71 I0.372 J0.928 F100
N1510 X11 Y-11.414 I-0.71 J-0.704 F400
N1520 G1 Y-14.7
N1530 G2 X10.707 Y-15.407 I-1 J0
N1540 G1 X10.457 Y-15.657
N1550 G2 X9.75 Y-15.95 I-0.707 J0.707
N1560 G1 X4.25
N1570 G2 X3.543 Y-15.657 I0 J1
N1580 G1 X3.293 Y-15.407
N1590 G2 X3 Y-14.7 I0.707 J0.707
N1600 G1 Y-8.414
N1610 G2 X3.073 Y-8.04 I1 J0
N1620 X3.291 Y-7.709 I0.927 J-0.374 F100
N1630 X2.586 Y-8 I-0.706 J0.709 F400
N1640 G1 X1
N1650 G2 X0 Y-7 I0 J1
N1660 G1 Y-1
N1670 G2 X1 Y0 I1 J0
N1680 G1 Z-4 F333.3
N1690 X10.804 F400
N1700 G2 X11.67 Y-0.5 I0 J-1
N1710 G1 X16.866 Y-9.5
N1720 G2 X16 Y-11 I-0.866 J-0.5
N1730 G1 X11.414
N1740 G2 X11.042 Y-10.928 I0 J1
N1750 X10.71 Y-10.71 I0.372 J0.928 F100
N1760 X11 Y-11.414 I-0.71 J-0.704 F400
N1770 G1 Y-14.7
N1780 G2 X10.707 Y-15.407 I-1 J0
N1790 G1 X10.457 Y-15.657
N1800 G2 X9.75 Y-15.95 I-0.707 J0.707
N1810 G1 X4.25
N1820 G2 X3.543 Y-15.657 I0 J1
N1830 G1 X3.293 Y-15.407
N1840 G2 X3 Y-14.7 I0.707 J0.707
N1850 G1 Y-8.414
N1860 G2 X3.073 Y-8.04 I1 J0
N1870 X3.291 Y-7.709 I0.927 J-0.374 F100
N1880 X2.586 Y-8 I-0.706 J0.709 F400
N1890 G1 X1
N1900 G2 X0 Y-7 I0 J1
N1910 G1 Y-1
N1920 G2 X1 Y0 I1 J0
N1930 G0 Z1
N1940 X31.087 Y-15.95
N1950 G1 Z-4 F333.3
N1960 X21.283 F400
N1970 G2 X20.417 Y-15.45 I0 J1
N1980 G1 X15.221 Y-6.45
N1990 G2 X16.087 Y-4.95 I0.866 J0.5
N2000 G1 X20.672
N2010 G2 X21.045 Y-5.022 I0 J-1
N2020 X21.377 Y-5.24 I-0.373 J-0.928 F100
N2030 X21.087 Y-4.536 I0.71 J0.705 F400
N2040 G1 Y-1.25
N2050 G2 X21.379 Y-0.543 I1 J0
N2060 G1 X21.629 Y-0.293
N2070 G2 X22.337 Y0 I0.707 J-0.707
N2080 G1 X27.837
N2090 G2 X28.544 Y-0.293 I0 J-1
N2100 G1 X28.794 Y-0.543
N2110 G2 X29.087 Y-1.25 I-0.707 J-0.707
N2120 G1 Y-7.536
N2130 G2 X29.015 Y-7.908 I-1 J0
N2140 X28.796 Y-8.24 I-0.928 J0.373 F100
N2150 X29.501 Y-7.95 I0.705 J-0.71 F400
N2160 G1 X31.087
N2170 G2 X32.087 Y-8.95 I0 J-1
N2180 G1 Y-14.95
N2190 G2 X31.087 Y-15.95 I-1 J0
N2200 G1 Z-4.9 F333.3
N2210 X21.283 F400
N2220 G2 X20.417 Y-15.45 I0 J1
N2230 G1 X15.221 Y-6.45
N2240 G2 X16.087 Y-4.95 I0.866 J0.5
N2250 G1 X20.672
N2260 G2 X21.045 Y-5.022 I0 J-1
N2270 X21.377 Y-5.24 I-0.373 J-0.928 F100
N2280 X21.087 Y-4.536 I0.71 J0.705 F400
N2290 G1 Y-1.25
N2300 G2 X21.379 Y-0.543 I1 J0
N2310 G1 X21.629 Y-0.293
N2320 G2 X22.337 Y0 I0.707 J-0.707
N2330 G1 X27.837
N2340 G2 X28.544 Y-0.293 I0 J-1
N2350 G1 X28.794 Y-0.543
N2360 G2 X29.087 Y-1.25 I-0.707 J-0.707
N2370 G1 Y-7.536
N2380 G2 X29.015 Y-7.908 I-1 J0
N2390 X28.796 Y-8.24 I-0.928 J0.373 F100
N2400 X29.501 Y-7.95 I0.705 J-0.71 F400
N2410 G1 X31.087
N2420 G2 X32.087 Y-8.95 I0 J-1
N2430 G1 Y-14.95
N2440 G2 X31.087 Y-15.95 I-1 J0
N2450 G0 Z1
N2460 X1 Y0
N2470 G1 Z-4.9 F333.3
N2480 X10.804 F400
N2490 G2 X11.67 Y-0.5 I0 J-1
N2500 G1 X16.866 Y-9.5
N2510 G2 X16 Y-11 I-0.866 J-0.5
N2520 G1 X11.414
N2530 G2 X11.042 Y-10.928 I0 J1
N2540 X10.71 Y-10.71 I0.372 J0.928 F100
N2550 X11 Y-11.414 I-0.71 J-0.704 F400
N2560 G1 Y-14.7
N2570 G2 X10.707 Y-15.407 I-1 J0
N2580 G1 X10.457 Y-15.657
N2590 G2 X9.75 Y-15.95 I-0.707 J0.707
N2600 G1 X4.25
N2610 G2 X3.543 Y-15.657 I0 J1
N2620 G1 X3.293 Y-15.407
N2630 G2 X3 Y-14.7 I0.707 J0.707
N2640 G1 Y-8.414
N2650 G2 X3.073 Y-8.04 I1 J0
N2660 X3.291 Y-7.709 I0.927 J-0.374 F100
N2670 X2.586 Y-8 I-0.706 J0.709 F400
N2680 G1 X1
N2690 G2 X0 Y-7 I0 J1
N2700 G1 Y-1
N2710 G2 X1 Y0 I1 J0
N2720 G0 Z1
N2730 M9
N2740 G0 Z1
N2750 G0 X0 Y0
N2760 M30
%
